public/static/img/common/full.svg

<svg xmlns="http://www.w3.org/2000/svg" width="24" height="24" fill="none"><path d="M8 3v2H4v4H2V3h6ZM2 21v-6h2v4h4v2H2Zm20 0h-6v-2h4v-4h2v6Zm0-12h-2V5h-4V3h6v6Z" fill="#fff" fill-opacity=".2"/></svg>

<svg xmlns="http://www.w3.org/2000/svg" width="24" height="24" viewBox="0 0 24 24" fill="none">
  <path d="M8 3V5H4V9H2V3H8ZM2 21V15H4V19H8V21H2ZM22 21H16V19H20V15H22V21ZM22 9H20V5H16V3H22V9Z" fill="white" fill-opacity="0.2"/>
</svg>
